X: 8585
T: Crombie's
R: hornpipe
M: 4/4
K: Amajor
|:(3 EFG|A>c e>c B>d c>B|A>c e>c a2 g>e|f>a g>f (3efe c>e|f>e d>c (3 Bcd c>B|
A>c e>c (3 Bcd c>B|A>c e>c a>e c<A|f>a d>f e>d B>G|(3 ABA G>B A2:|
|:g>a|b>g e>^d e>g b>g|a>g f<a c2 (3 cde|f>d e>c (3 dcB c>A|B>c d>e (3 Bcd c>B|
A>c e>c B>d c>B|A>c e>c a>e c<A|f>a d>f e>d B>G|(3 ABA G>B A2:|

